flaticon/files-and-folders/files-28.svg

<svg xmlns="http://www.w3.org/2000/svg" width="32" height="32" viewBox="0 0 24 24">
    <path d="M 12.398438 9.800781 L 12.398438 3.800781 C 12.398438 3.238281 11.960938 2.800781 11.398438 2.800781 L 11.199219 2.800781 L 11.199219 2.199219 C 11.199219 1.640625 10.761719 1.199219 10.199219 1.199219 L 7.199219 1.199219 L 6.320312 0.160156 C 6.238281 0.0390625 6.121094 0 6 0 L 1.800781 0 C 1.238281 0 0.800781 0.441406 0.800781 1 L 0.800781 2.820312 C 0.339844 2.910156 0 3.308594 0 3.800781 L 0 9.800781 C 0 10.359375 0.441406 10.800781 1 10.800781 L 11.398438 10.800781 C 11.960938 10.800781 12.398438 10.359375 12.398438 9.800781 Z M 1.601562 1 C 1.601562 0.878906 1.679688 0.800781 1.800781 0.800781 L 5.800781 0.800781 L 6.679688 1.839844 C 6.761719 1.960938 6.878906 2 7 2 L 10.199219 2 C 10.320312 2 10.398438 2.078125 10.398438 2.199219 L 10.398438 2.800781 L 1.601562 2.800781 Z M 11.601562 9.800781 C 11.601562 9.921875 11.519531 10 11.398438 10 L 1 10 C 0.878906 10 0.800781 9.921875 0.800781 9.800781 L 0.800781 3.800781 C 0.800781 3.679688 0.878906 3.601562 1 3.601562 L 11.398438 3.601562 C 11.519531 3.601562 11.601562 3.679688 11.601562 3.800781 Z M 11.601562 9.800781"/>
    <path d="M4.398438 4.398438L2 4.398438C1.761719 4.398438 1.601562 4.558594 1.601562 4.800781 1.601562 5.039062 1.761719 5.199219 2 5.199219L4.398438 5.199219C4.640625 5.199219 4.800781 5.039062 4.800781 4.800781 4.800781 4.558594 4.640625 4.398438 4.398438 4.398438zM4.398438 6L2 6C1.761719 6 1.601562 6.160156 1.601562 6.398438 1.601562 6.640625 1.761719 6.800781 2 6.800781L4.398438 6.800781C4.640625 6.800781 4.800781 6.640625 4.800781 6.398438 4.800781 6.160156 4.640625 6 4.398438 6zM23 16L22.800781 16 22.800781 15.398438C22.800781 14.839844 22.359375 14.398438 21.800781 14.398438L18.800781 14.398438 17.921875 13.359375C17.839844 13.238281 17.71875 13.199219 17.601562 13.199219L13.398438 13.199219C12.839844 13.199219 12.398438 13.640625 12.398438 14.199219L12.398438 16.019531C11.9375 16.109375 11.601562 16.507812 11.601562 17L11.601562 23C11.601562 23.558594 12.039062 24 12.601562 24L23 24C23.558594 24 24 23.558594 24 23L24 17C24 16.441406 23.558594 16 23 16zM13.199219 14.199219C13.199219 14.078125 13.28125 14 13.398438 14L17.398438 14 18.28125 15.039062C18.359375 15.160156 18.480469 15.199219 18.601562 15.199219L21.800781 15.199219C21.921875 15.199219 22 15.28125 22 15.398438L22 16 13.199219 16zM23.199219 23C23.199219 23.121094 23.121094 23.199219 23 23.199219L12.601562 23.199219C12.480469 23.199219 12.398438 23.121094 12.398438 23L12.398438 17C12.398438 16.878906 12.480469 16.800781 12.601562 16.800781L23 16.800781C23.121094 16.800781 23.199219 16.878906 23.199219 17zM23.199219 23"/>
    <path d="M16 17.601562L13.601562 17.601562C13.359375 17.601562 13.199219 17.761719 13.199219 18 13.199219 18.238281 13.359375 18.398438 13.601562 18.398438L16 18.398438C16.238281 18.398438 16.398438 18.238281 16.398438 18 16.398438 17.761719 16.238281 17.601562 16 17.601562zM16 19.199219L13.601562 19.199219C13.359375 19.199219 13.199219 19.359375 13.199219 19.601562 13.199219 19.839844 13.359375 20 13.601562 20L16 20C16.238281 20 16.398438 19.839844 16.398438 19.601562 16.398438 19.359375 16.238281 19.199219 16 19.199219zM9.410156 20.050781L7.878906 18.519531C7.71875 18.359375 7.480469 18.359375 7.320312 18.519531 7.160156 18.679688 7.160156 18.921875 7.320312 19.078125L8.238281 20 1.199219 20C.960938 20 .800781 20.160156.800781 20.398438.800781 20.640625.960938 20.800781 1.199219 20.800781L8.238281 20.800781 7.320312 21.71875C7.160156 21.878906 7.160156 22.121094 7.320312 22.28125 7.398438 22.359375 7.480469 22.398438 7.601562 22.398438 7.71875 22.398438 7.800781 22.359375 7.878906 22.28125L9.410156 20.75C9.527344 20.683594 9.601562 20.558594 9.601562 20.398438 9.601562 20.242188 9.527344 20.117188 9.410156 20.050781zM14.589844 4.75L16.121094 6.28125C16.199219 6.359375 16.28125 6.398438 16.398438 6.398438 16.519531 6.398438 16.601562 6.359375 16.679688 6.28125 16.839844 6.121094 16.839844 5.878906 16.679688 5.71875L15.761719 4.800781 22.800781 4.800781C23.039062 4.800781 23.199219 4.640625 23.199219 4.398438 23.199219 4.160156 23.039062 4 22.800781 4L15.761719 4 16.679688 3.078125C16.839844 2.921875 16.839844 2.679688 16.679688 2.519531 16.519531 2.359375 16.28125 2.359375 16.121094 2.519531L14.589844 4.050781C14.472656 4.117188 14.398438 4.242188 14.398438 4.398438 14.398438 4.558594 14.472656 4.683594 14.589844 4.75zM14.589844 4.75"/>
</svg>

<svg xmlns="http://www.w3.org/2000/svg" width="32" height="32" viewBox="0 0 24 24">
    <path d="M12.398 9.8v-6c0-.562-.437-1-1-1H11.2v-.6a.99.99 0 0 0-1-1h-3L6.32.16A.363.363 0 0 0 6 0H1.8a.99.99 0 0 0-1 1v1.82c-.46.09-.8.489-.8.98v6c0 .56.441 1 1 1h10.398a.99.99 0 0 0 1-1zM1.602 1c0-.121.078-.2.199-.2h4l.879 1.04c.082.12.199.16.32.16h3.2c.12 0 .198.078.198.2v.6H1.602zm10 8.8c0 .122-.082.2-.204.2H1c-.121 0-.2-.078-.2-.2v-6c0-.12.079-.198.2-.198h10.398c.122 0 .204.078.204.199zm0 0"/>
    <path d="M4.398 4.398H2c-.238 0-.398.16-.398.403 0 .238.16.398.398.398h2.398c.243 0 .403-.16.403-.398 0-.242-.16-.403-.403-.403zm0 0M4.398 6H2c-.238 0-.398.16-.398.398 0 .243.16.403.398.403h2.398c.243 0 .403-.16.403-.403C4.8 6.16 4.64 6 4.398 6zm0 0M23 16h-.2v-.602c0-.558-.44-1-1-1h-3l-.878-1.039a.367.367 0 0 0-.32-.16h-4.204c-.558 0-1 .442-1 1v1.82a.985.985 0 0 0-.796.981v6c0 .559.437 1 1 1H23c.559 0 1-.441 1-1v-6c0-.559-.441-1-1-1zm-9.8-1.8c0-.122.081-.2.198-.2h4l.883 1.04c.078.12.2.16.32.16h3.2c.12 0 .199.081.199.198V16h-8.8zm10 8.8c0 .121-.079.2-.2.2H12.602c-.122 0-.204-.079-.204-.2v-6c0-.121.082-.2.204-.2H23c.121 0 .2.079.2.2zm0 0"/>
    <path d="M16 17.602h-2.398c-.243 0-.403.16-.403.398 0 .238.16.398.403.398H16c.238 0 .398-.16.398-.398 0-.238-.16-.398-.398-.398zm0 0M16 19.2h-2.398c-.243 0-.403.16-.403.402 0 .238.16.398.403.398H16c.238 0 .398-.16.398-.398 0-.243-.16-.403-.398-.403zm0 0M9.41 20.05L7.88 18.52a.385.385 0 0 0-.559 0 .385.385 0 0 0 0 .558l.918.922H1.2c-.238 0-.398.16-.398.398 0 .243.16.403.398.403h7.04l-.919.918a.39.39 0 0 0 0 .562c.078.078.16.117.282.117.117 0 .199-.039.277-.117L9.41 20.75a.388.388 0 0 0 .192-.352.386.386 0 0 0-.192-.347zm0 0M14.59 4.75l1.531 1.531c.078.078.16.117.277.117.122 0 .204-.039.282-.117a.39.39 0 0 0 0-.562l-.918-.918H22.8c.238 0 .398-.16.398-.403 0-.238-.16-.398-.398-.398h-7.04l.919-.922a.385.385 0 0 0 0-.558.385.385 0 0 0-.559 0L14.59 4.05a.386.386 0 0 0-.192.348c0 .16.075.286.192.352zm0 0"/>
</svg>
